X: 36155
T: Scotch Mist
R: strathspey
M: 4/4
K: Dmajor
g2 (3gab a<fe<d|1 (3BcB g>f (3efd (3cBA:|2 B<ge>c d2 f>g||
g>fg>b a<fe<d|B>ge>c d2||
|:A>FA<d B>GB<d|c>de>c d2 f2|
g>fg<b a<fe<d|1 B<Bg>f (3efd (3cdB:|2 B<gf>e d3 f||
|:a>ba<g d>ef<d|g>ab>g e2 (3efg|
a>ba<f d>ef<d|1 B<Bg>f e3 f:|2 B<gf>e d3 z||

